X:1
T:Title
%%score ( 1 2 ) ( 3 4 )
L:1/8
M:3/4
K:G
V:1 treble nm="Bright Piano"
V:2 treble 
V:3 bass nm="Bright Piano"
V:4 bass 
V:1
 z2 z2[Q:1/4=100] z A | [GB]4 [Gc]2 | [Gd]4 [GB]2 | [FA]2 [DG]2 [DA]2 | [DB]2 [DG]2 Bc | %5
 [Gd]4 [GB]2 | [FA]4 [Fd]2 | ^c2 B2 [Gc]2 | [Fd]4 D2 | c2- [Gc]2 [Ac]2 | [GB]2 [FA]2 [DG]2 | %11
 F2 z2 z2 | [B,G]2 [CA]2 [DB]2 | [Cc]4 [DB]2 | e3 d cA | [DG]4 [CF]2 |[M:2/4] [B,G]4 |] %17
V:2
 z2 z2 G2 | x6 | x6 | x6 | z2 z2 G2 | x6 | x6 | G4 z2 | x6 | F2 z2 z2 | x6 | C2- [CE]2 [CF]2 | x6 | %13
 x6 | E4 E2 | x6 |[M:2/4] x4 |] %17
V:3
 z2 z2 B,C | [G,D]4 [A,D]2 | [B,D]4 [G,D]2 | C2 B,2 [D,C]2 | [G,B,]2 [G,B,]2 z A, | %5
 [G,B,]4 [G,^C]2 | [D,D]4 [D,A,]2 | [E,A,]4 [A,,A,]2 | [D,A,]4 D,2 | D4 z2 | D2 z2 z2 | A,2 z2 z2 | %12
 [G,,G,]2 [G,,G,]2 [=F,G,]2 | [E,G,]4 [D,G,]2 | z2 z2 .A,2 | [D,B,]4 [D,A,]2 |[M:2/4] [G,,G,]4 |] %17
V:4
 z2 z2 G,2 | x6 | x6 | D,4 z2 | z2 z2 G,2 | x6 | x6 | x6 | x6 | D,2 E,2 [F,D]2 | %10
 G,2- [G,C]2 [G,B,]2 | D,2- [D,G,]2 [D,A,]2 | x6 | x6 | [C,G,]4 C,-[C,C] | x6 |[M:2/4] x4 |] %17

